X:1
T: 36 years
C:Bruce Shawyer
R:Reel
Q:232
K:G
M:4/4
L:1/16
|:"G"d2c2B2d2 "D7"c2B2A2c2|"Em"B2c2d2B2 G4A2B2|"Am"c2B2A2B2 c2B2A2B2|"D7"c2B2A2G2 F4B2c2|
"G"d2c2B2d2 "D7"c2B2A2c2|"Em"B2c2d2B2 G4A2B2|"Am"c2B2A2G2 "D7"F2D2E2F2|"G"G2A2B2A2 G8|
"G"B2c2d2B2 "C"c2d2e2c2|"D"d2e2f2d2 "Em"g8|"Am"g2f2e2d2 e2d2c2B2|"D7"c2B2A2G2 A8|
"G"B2c2d2B2 "C"c2d2e2c2|"D"d2e2f2d2 "Em"g8|"Am"g2f2e2d2 c2B2A2G2|"D7"F2G2A2F2 "G"G8:|
